X:27
T:Abide, O Dearest Jesus
%%stretchlast false
M:4/4
L:1/4
K:C clef=C1
"^I"[C,E,G,C] [C,G,CE] "^V"[G,,G,B,D] "^I"[C,G,CE] | "^IV¹"[A,,C,CF] "^V"[G,,D,B,G] [G,,G,B,G] "^I"[C,G,CE] | "^IV"[F,,F,CA] "^I"[C,E,CG]3/2 "^ii"[D,F,A,F]/ "^I"[C,G,CE] | "^V"[G,,G,B,D] "^I"[C,G,CE]2 "^i"[C,C] | "^I"[F,,E,CG] "^IV¹"[A,,F,CA] "^iii"[G,,E,DA] "^Imaj7¹"[E,,G,CB] | [F,,G,Cc] "^IV"[F,,F,CA] "^IV²"[C,F,CA] "^I"[C,,E,CG] | "^iii"[D,,G,A,E] [E,,F,G,D] "^IVmaj7"[F,,E,A,C] "^i"[G,,D,G,C] | "^V"[C,,D,G,B,] "^I"[C,,E,G,C]3 |]
